storage/app/icons/phosphoricons/regular/circle-dashed.svg

<svg xmlns="http://www.w3.org/2000/svg" fill="currentColor" viewBox="0 0 256 256"><path d="M96.26 37.05a8 8 0 0 1 5.74-9.76 104.1 104.1 0 0 1 52 0 8 8 0 0 1-2 15.75 8.2 8.2 0 0 1-2-.26 88.1 88.1 0 0 0-44 0 8 8 0 0 1-9.74-5.73M53.79 55.14a104.05 104.05 0 0 0-26 45 8 8 0 0 0 15.42 4.27 88 88 0 0 1 22-38.09 8 8 0 0 0-11.42-11.18m-10.58 96.41a8 8 0 1 0-15.42 4.28 104.1 104.1 0 0 0 26 45 8 8 0 0 0 11.41-11.22 88.14 88.14 0 0 1-21.99-38.06M150 213.22a88 88 0 0 1-44 0 8 8 0 1 0-4 15.49 104.1 104.1 0 0 0 52 0 8 8 0 0 0-4-15.49M222.65 146a8 8 0 0 0-9.85 5.58 87.9 87.9 0 0 1-22 38.08 8 8 0 1 0 11.42 11.21 104 104 0 0 0 26-45 8 8 0 0 0-5.57-9.87m-9.86-41.54a8 8 0 0 0 15.42-4.28 104 104 0 0 0-26-45A8 8 0 1 0 190.8 66.4a88 88 0 0 1 21.99 38.05Z"/></svg>

<svg xmlns="http://www.w3.org/2000/svg" viewBox="0 0 256 256" fill="currentColor"><path d="M96.26,37.05A8,8,0,0,1,102,27.29a104.11,104.11,0,0,1,52,0,8,8,0,0,1-2,15.75,8.15,8.15,0,0,1-2-.26,88.09,88.09,0,0,0-44,0A8,8,0,0,1,96.26,37.05ZM53.79,55.14a104.05,104.05,0,0,0-26,45,8,8,0,0,0,15.42,4.27,88,88,0,0,1,22-38.09A8,8,0,0,0,53.79,55.14ZM43.21,151.55a8,8,0,1,0-15.42,4.28,104.12,104.12,0,0,0,26,45,8,8,0,0,0,11.41-11.22A88.14,88.14,0,0,1,43.21,151.55ZM150,213.22a88,88,0,0,1-44,0,8,8,0,1,0-4,15.49,104.11,104.11,0,0,0,52,0,8,8,0,0,0-4-15.49ZM222.65,146a8,8,0,0,0-9.85,5.58,87.91,87.91,0,0,1-22,38.08,8,8,0,1,0,11.42,11.21,104,104,0,0,0,26-45A8,8,0,0,0,222.65,146Zm-9.86-41.54a8,8,0,0,0,15.42-4.28,104,104,0,0,0-26-45,8,8,0,1,0-11.41,11.22A88,88,0,0,1,212.79,104.45Z"/></svg>
